!!!OTL: Nusz my dzis krzesciani
**kern
*staff1
=1-
*clefF4
*k[]
*met(c|)
*M2/2
1D
1D
=2
1C#
1D
=3
1AA
1D
=4
0C
!!linebreak:original
=5
1D
1D
=6
1C#
1D
=7
1AA
1D
=8
0C
=9
1D
1GG
=10
1AA
1AA
=11
0D;
!!linebreak:original
=12
4D\
4AA/
4D\
4C/
2D\
2AA/
=13
4D\
4AA/
4D\
4C/
2D\
2AA/
=14
2FF/
2GG/
2BB-/
2AA/
=15
0D
==
*-
!!title: @{OTL}, @{GTL}, ed. @{ENC}
!!!pag:
!!!GTL: Hymnbook D
!!!EFL: 
!!!YEM: Creative Commons CC/BY/NC/SA 4.0
!!!ENC: Marcin Konik
!!!END: 2015-0m-dd
!!!EED: Marcin Konik
!!!EEV: 
!!!ONB: Encoded in vim by Marcin Konik
!!!CharacterEncoding: utf-8
!!!RDF**kern: l=long note in original notation
!!!RDF**kern: i=editorial accidental
!!muse2ps: z14jc180F
!!!COM: Anonim
!!!CDT: [?]
!!!TXO: Polish
!!!ODT: 
!!!GTL: Hymnbook D
!!!ARL: Opactwo św. Wojciecha, Staniątki 
!!!voices:	1
